X: 1275
T: Peter Kennedy's Fancy
M:C|
L:1/8
R:Reel
B:O'Neill's 1275
N:Collected by Miss Kennedy
Z:Transcribed by Trish O'Neil
K:G
(BA)|G2GGG2(BA)|GABA GET(ED)|EGGA GABd|(3efg dB T(BA)AB|
G2GGG2(BA)|GABA GET(ED)|EGGA GABd|egdB T(B"End"A)A2||
d2(gd) edgd|d2(gd) BAAB|d2(gd) edef|{a}gedB T(BAAB|
d2(gd) edgd|d2{a}(gd) T(BA)AB|c2cA T(BA)Bd|(3efg dB T(BA)AB||
